Newaita-dark/.places-blue/64/folder-templates.svg

<?xml version="1.0" encoding="UTF-8"?>
<svg xmlns="http://www.w3.org/2000/svg" xmlns:xlink="http://www.w3.org/1999/xlink" width="64px" height="64px" viewBox="0 0 64 64" version="1.1">
<defs>
<linearGradient id="linear0" gradientUnits="userSpaceOnUse" x1="254" y1="233.5" x2="254" y2="254.666672" gradientTransform="matrix(0.125012,0,0,0.125012,-0.00000763012,26.877574)">
<stop offset="0" style="stop-color:rgb(0%,0%,0%);stop-opacity:0.27451;"/>
<stop offset="1" style="stop-color:rgb(0%,0%,0%);stop-opacity:0;"/>
</linearGradient>
<radialGradient id="radial0" gradientUnits="userSpaceOnUse" cx="450.908936" cy="189.579361" fx="450.908936" fy="189.579361" r="21.166656" gradientTransform="matrix(0.000000348341,-0.156265,-0.281277,-0.000000203077,108.230425,127.190669)">
<stop offset="0" style="stop-color:rgb(0%,0%,0%);stop-opacity:0.313726;"/>
<stop offset="0.222222" style="stop-color:rgb(0%,0%,0%);stop-opacity:0.27451;"/>
<stop offset="1" style="stop-color:rgb(0%,0%,0%);stop-opacity:0;"/>
</radialGradient>
<radialGradient id="radial1" gradientUnits="userSpaceOnUse" cx="450.908936" cy="189.579361" fx="450.908936" fy="189.579361" r="21.166656" gradientTransform="matrix(-0.000000348341,0.156265,0.281277,0.000000203077,-44.724356,-15.054954)">
<stop offset="0" style="stop-color:rgb(0%,0%,0%);stop-opacity:0.313726;"/>
<stop offset="0.222222" style="stop-color:rgb(0%,0%,0%);stop-opacity:0.27451;"/>
<stop offset="1" style="stop-color:rgb(0%,0%,0%);stop-opacity:0;"/>
</radialGradient>
<radialGradient id="radial2" gradientUnits="userSpaceOnUse" cx="450.908936" cy="189.579361" fx="450.908936" fy="189.579361" r="21.166656" gradientTransform="matrix(-0.000000348341,-0.156265,0.281277,-0.000000203077,-44.724356,127.190669)">
<stop offset="0" style="stop-color:rgb(0%,0%,0%);stop-opacity:0.313726;"/>
<stop offset="0.222222" style="stop-color:rgb(0%,0%,0%);stop-opacity:0.27451;"/>
<stop offset="1" style="stop-color:rgb(0%,0%,0%);stop-opacity:0;"/>
</radialGradient>
<radialGradient id="radial3" gradientUnits="userSpaceOnUse" cx="450.908936" cy="189.579361" fx="450.908936" fy="189.579361" r="21.166656" gradientTransform="matrix(0.000000348341,0.156265,-0.281277,0.000000203077,108.230422,-15.054955)">
<stop offset="0" style="stop-color:rgb(0%,0%,0%);stop-opacity:0.313726;"/>
<stop offset="0.222222" style="stop-color:rgb(0%,0%,0%);stop-opacity:0.27451;"/>
<stop offset="1" style="stop-color:rgb(0%,0%,0%);stop-opacity:0;"/>
</radialGradient>
<linearGradient id="linear1" gradientUnits="userSpaceOnUse" x1="254" y1="-147.5" x2="254" y2="-31.083334" gradientTransform="matrix(0.125012,0,0,0.125012,0.00000249951,26.877563)">
<stop offset="0" style="stop-color:rgb(64.313728%,64.313728%,64.313728%);stop-opacity:0;"/>
<stop offset="1" style="stop-color:rgb(100%,100%,100%);stop-opacity:0.196078;"/>
</linearGradient>
<linearGradient id="linear2" gradientUnits="userSpaceOnUse" x1="254" y1="233.5" x2="254" y2="-105.166656" gradientTransform="matrix(0.125012,0,0,0.125012,-0.00000362479,26.877566)">
<stop offset="0" style="stop-color:rgb(34.509805%,34.509805%,34.509805%);stop-opacity:0;"/>
<stop offset="1" style="stop-color:rgb(98.039216%,98.039216%,98.039216%);stop-opacity:0.196078;"/>
</linearGradient>
</defs>
<g id="surface1">
<path style=" stroke:none;fill-rule:nonzero;fill:url(#linear0);" d="M 7.9375 56.066406 L 55.566406 56.066406 L 55.566406 58.714844 L 7.9375 58.714844 Z M 7.9375 56.066406 "/>
<path style=" stroke:none;fill-rule:nonzero;fill:url(#radial0);" d="M 55.566406 56.066406 L 60.859375 56.066406 L 60.859375 53.421875 L 55.566406 53.421875 Z M 55.566406 56.066406 "/>
<path style=" stroke:none;fill-rule:nonzero;fill:url(#radial1);" d="M 7.9375 56.066406 L 2.644531 56.066406 L 2.644531 58.714844 L 7.9375 58.714844 Z M 7.9375 56.066406 "/>
<path style=" stroke:none;fill-rule:nonzero;fill:url(#radial2);" d="M 7.9375 56.066406 L 2.644531 56.066406 L 2.644531 53.421875 L 7.9375 53.421875 Z M 7.9375 56.066406 "/>
<path style=" stroke:none;fill-rule:nonzero;fill:url(#radial3);" d="M 55.566406 56.066406 L 60.859375 56.066406 L 60.859375 58.714844 L 55.566406 58.714844 Z M 55.566406 56.066406 "/>
<path style=" stroke:none;fill-rule:nonzero;fill:rgb(25.882354%,64.705884%,96.078432%);fill-opacity:1;" d="M 14.554688 8.4375 L 57.550781 8.4375 C 59.015625 8.4375 60.199219 9.621094 60.199219 11.085938 L 60.199219 21.007812 C 60.199219 22.46875 59.015625 23.652344 57.550781 23.652344 L 14.554688 23.652344 C 13.09375 23.652344 11.90625 22.46875 11.90625 21.007812 L 11.90625 11.085938 C 11.90625 9.621094 13.09375 8.4375 14.554688 8.4375 Z M 14.554688 8.4375 "/>
<path style=" stroke:none;fill-rule:nonzero;fill:url(#linear1);" d="M 14.554688 8.4375 L 57.550781 8.4375 C 59.015625 8.4375 60.199219 9.621094 60.199219 11.085938 L 60.199219 21.007812 C 60.199219 22.46875 59.015625 23.652344 57.550781 23.652344 L 14.554688 23.652344 C 13.09375 23.652344 11.90625 22.46875 11.90625 21.007812 L 11.90625 11.085938 C 11.90625 9.621094 13.09375 8.4375 14.554688 8.4375 Z M 14.554688 8.4375 "/>
<path style=" stroke:none;fill-rule:nonzero;fill:rgb(100%,100%,100%);fill-opacity:0.392157;" d="M 14.554688 8.605469 C 13.085938 8.605469 11.90625 9.785156 11.90625 11.25 L 11.90625 11.582031 C 11.90625 10.113281 13.085938 8.933594 14.554688 8.933594 L 57.550781 8.933594 C 59.019531 8.933594 60.199219 10.113281 60.199219 11.582031 L 60.199219 11.25 C 60.199219 9.785156 59.019531 8.605469 57.550781 8.605469 Z M 14.554688 8.605469 "/>
<path style=" stroke:none;fill-rule:nonzero;fill:rgb(12.941177%,12.941177%,12.941177%);fill-opacity:1;" d="M 14.554688 8.25 C 12.988281 8.25 11.71875 9.519531 11.71875 11.085938 L 11.71875 21.007812 C 11.71875 22.574219 12.988281 23.839844 14.554688 23.839844 L 57.550781 23.839844 C 59.117188 23.839844 60.386719 22.574219 60.386719 21.007812 L 60.386719 11.085938 C 60.386719 9.519531 59.117188 8.25 57.550781 8.25 Z M 14.554688 8.625 L 57.550781 8.625 C 58.917969 8.625 60.011719 9.71875 60.011719 11.085938 L 60.011719 21.007812 C 60.011719 22.371094 58.917969 23.464844 57.550781 23.464844 L 14.554688 23.464844 C 13.1875 23.464844 12.09375 22.371094 12.09375 21.007812 L 12.09375 11.085938 C 12.09375 9.71875 13.1875 8.625 14.554688 8.625 Z M 14.554688 8.625 "/>
<path style=" stroke:none;fill-rule:nonzero;fill:rgb(39.215687%,70.980394%,96.470588%);fill-opacity:1;" d="M 5.292969 13.730469 C 3.828125 13.730469 2.644531 14.910156 2.644531 16.375 L 2.644531 53.421875 C 2.644531 54.886719 3.828125 56.066406 5.292969 56.066406 L 58.214844 56.066406 C 59.679688 56.066406 60.859375 54.886719 60.859375 53.421875 L 60.859375 20.34375 L 25.136719 20.34375 C 23.671875 20.34375 22.492188 19.164062 22.492188 17.699219 L 22.492188 13.730469 Z M 5.292969 13.730469 "/>
<path style=" stroke:none;fill-rule:nonzero;fill:url(#linear2);" d="M 5.292969 13.730469 C 3.828125 13.730469 2.644531 14.910156 2.644531 16.375 L 2.644531 53.421875 C 2.644531 54.886719 3.828125 56.066406 5.292969 56.066406 L 58.214844 56.066406 C 59.679688 56.066406 60.859375 54.886719 60.859375 53.421875 L 60.859375 20.34375 L 25.136719 20.34375 C 23.671875 20.34375 22.492188 19.164062 22.492188 17.699219 L 22.492188 13.730469 Z M 5.292969 13.730469 "/>
<path style=" stroke:none;fill-rule:nonzero;fill:rgb(0%,0%,0%);fill-opacity:0.196078;" d="M 5.292969 56.066406 C 3.828125 56.066406 2.644531 54.886719 2.644531 53.421875 L 2.644531 53.089844 C 2.644531 54.558594 3.828125 55.738281 5.292969 55.738281 L 58.214844 55.738281 C 59.679688 55.738281 60.859375 54.558594 60.859375 53.089844 L 60.859375 53.421875 C 60.859375 54.886719 59.679688 56.066406 58.214844 56.066406 Z M 5.292969 56.066406 "/>
<path style=" stroke:none;fill-rule:nonzero;fill:rgb(100%,100%,100%);fill-opacity:0.392157;" d="M 5.292969 13.894531 C 3.828125 13.894531 2.644531 15.074219 2.644531 16.542969 L 2.644531 16.871094 C 2.644531 15.40625 3.828125 14.226562 5.292969 14.226562 L 22.492188 14.226562 L 22.492188 13.894531 Z M 5.292969 13.894531 "/>
<path style=" stroke:none;fill-rule:nonzero;fill:rgb(100%,100%,100%);fill-opacity:0.392157;" d="M 24.972656 20.675781 C 23.507812 20.675781 22.328125 19.496094 22.328125 18.03125 L 22.328125 17.699219 C 22.328125 19.164062 23.507812 20.347656 24.972656 20.347656 L 60.859375 20.347656 L 60.859375 20.675781 Z M 24.972656 20.675781 "/>
<path style=" stroke:none;fill-rule:nonzero;fill:rgb(12.941177%,12.941177%,12.941177%);fill-opacity:1;" d="M 5.292969 13.542969 C 3.726562 13.542969 2.457031 14.808594 2.457031 16.375 L 2.457031 53.421875 C 2.457031 54.988281 3.726562 56.253906 5.292969 56.253906 L 58.214844 56.253906 C 59.78125 56.253906 61.046875 54.988281 61.046875 53.421875 L 61.046875 19.96875 L 25.136719 19.96875 C 23.773438 19.96875 22.679688 18.878906 22.679688 17.511719 L 22.679688 13.542969 Z M 5.292969 13.917969 L 22.304688 13.917969 L 22.304688 17.511719 C 22.304688 19.078125 23.570312 20.34375 25.136719 20.34375 L 60.671875 20.34375 L 60.671875 53.421875 C 60.671875 54.785156 59.578125 55.878906 58.214844 55.878906 L 5.292969 55.878906 C 3.925781 55.878906 2.832031 54.785156 2.832031 53.421875 L 2.832031 16.375 C 2.832031 15.011719 3.925781 13.917969 5.292969 13.917969 Z M 5.292969 13.917969 "/>
<path style=" stroke:none;fill-rule:nonzero;fill:rgb(12.941177%,58.823532%,95.294118%);fill-opacity:1;" d="M 23.816406 25.636719 C 23.082031 25.636719 22.492188 26.226562 22.492188 26.960938 L 22.492188 34.898438 L 25.136719 34.898438 L 25.136719 28.945312 C 25.136719 28.578125 25.433594 28.285156 25.800781 28.285156 L 30.429688 28.285156 L 30.429688 25.636719 Z M 33.074219 25.636719 L 33.074219 28.285156 L 37.707031 28.285156 C 38.074219 28.285156 38.367188 28.578125 38.367188 28.945312 L 38.367188 34.898438 L 41.015625 34.898438 L 41.015625 26.960938 C 41.015625 26.226562 40.425781 25.636719 39.691406 25.636719 Z M 22.492188 37.546875 L 22.492188 45.484375 C 22.492188 46.214844 23.082031 46.804688 23.816406 46.804688 L 30.429688 46.804688 L 30.429688 44.160156 L 25.800781 44.160156 C 25.433594 44.160156 25.136719 43.867188 25.136719 43.5 L 25.136719 37.546875 Z M 38.367188 37.546875 L 38.367188 43.5 C 38.367188 43.867188 38.074219 44.160156 37.707031 44.160156 L 33.074219 44.160156 L 33.074219 46.804688 L 39.691406 46.804688 C 40.425781 46.804688 41.015625 46.214844 41.015625 45.484375 L 41.015625 37.546875 Z M 38.367188 37.546875 "/>
<path style=" stroke:none;fill-rule:nonzero;fill:rgb(0%,0%,0%);fill-opacity:0.235294;" d="M 23.816406 25.636719 C 23.082031 25.636719 22.492188 26.226562 22.492188 26.960938 L 22.492188 27.46875 C 22.492188 26.738281 23.082031 26.148438 23.816406 26.148438 L 30.429688 26.148438 L 30.429688 25.636719 Z M 33.074219 25.636719 L 33.074219 26.148438 L 39.691406 26.148438 C 40.425781 26.148438 41.015625 26.738281 41.015625 27.46875 L 41.015625 26.960938 C 41.015625 26.226562 40.425781 25.636719 39.691406 25.636719 Z M 22.492188 37.546875 L 22.492188 38.054688 L 25.136719 38.054688 L 25.136719 37.546875 Z M 38.367188 37.546875 L 38.367188 38.054688 L 41.015625 38.054688 L 41.015625 37.546875 Z M 25.136719 43.5 L 25.136719 44.007812 C 25.136719 44.375 25.433594 44.671875 25.800781 44.671875 L 30.429688 44.671875 L 30.429688 44.160156 L 25.800781 44.160156 C 25.433594 44.160156 25.136719 43.867188 25.136719 43.5 Z M 38.367188 43.5 C 38.367188 43.867188 38.074219 44.160156 37.707031 44.160156 L 33.074219 44.160156 L 33.074219 44.671875 L 37.707031 44.671875 C 38.074219 44.671875 38.367188 44.375 38.367188 44.007812 Z M 38.367188 43.5 "/>
<path style=" stroke:none;fill-rule:nonzero;fill:rgb(100%,100%,100%);fill-opacity:0.392157;" d="M 25.800781 28.285156 C 25.433594 28.285156 25.136719 28.578125 25.136719 28.945312 L 25.136719 29.441406 C 25.136719 29.074219 25.433594 28.78125 25.800781 28.78125 L 30.429688 28.78125 L 30.429688 28.285156 Z M 33.074219 28.285156 L 33.074219 28.78125 L 37.707031 28.78125 C 38.074219 28.78125 38.367188 29.074219 38.367188 29.441406 L 38.367188 28.945312 C 38.367188 28.578125 38.074219 28.285156 37.707031 28.285156 Z M 22.492188 34.898438 L 22.492188 35.394531 L 25.136719 35.394531 L 25.136719 34.898438 Z M 38.367188 34.898438 L 38.367188 35.394531 L 41.015625 35.394531 L 41.015625 34.898438 Z M 22.492188 45.484375 L 22.492188 45.980469 C 22.492188 46.710938 23.082031 47.300781 23.816406 47.300781 L 30.429688 47.300781 L 30.429688 46.804688 L 23.816406 46.804688 C 23.082031 46.804688 22.492188 46.214844 22.492188 45.484375 Z M 41.015625 45.484375 C 41.015625 46.214844 40.425781 46.804688 39.691406 46.804688 L 33.074219 46.804688 L 33.074219 47.300781 L 39.691406 47.300781 C 40.425781 47.300781 41.015625 46.710938 41.015625 45.980469 Z M 41.015625 45.484375 "/>
<path style="fill:none;stroke-width:11.338583;stroke-linecap:round;stroke-linejoin:round;stroke:rgb(12.941177%,12.941177%,12.941177%);stroke-opacity:1;stroke-miterlimit:4;" d="M 720.049387 775.083504 C 697.846781 775.083504 680.013838 792.916448 680.013838 815.119053 L 680.013838 1055.096149 L 759.966837 1055.096149 L 759.966837 875.113327 C 759.966837 864.012025 768.942358 855.154602 780.043661 855.154602 L 919.990934 855.154602 L 919.990934 775.083504 Z M 999.943933 775.083504 L 999.943933 855.154602 L 1140.009305 855.154602 C 1151.110607 855.154602 1159.96803 864.012025 1159.96803 875.113327 L 1159.96803 1055.096149 L 1240.039128 1055.096149 L 1240.039128 815.119053 C 1240.039128 792.916448 1222.206184 775.083504 1200.003579 775.083504 Z M 680.013838 1135.167247 L 680.013838 1375.144343 C 680.013838 1397.228849 697.846781 1415.061793 720.049387 1415.061793 L 919.990934 1415.061793 L 919.990934 1335.108794 L 780.043661 1335.108794 C 768.942358 1335.108794 759.966837 1326.251372 759.966837 1315.150069 L 759.966837 1135.167247 Z M 1159.96803 1135.167247 L 1159.96803 1315.150069 C 1159.96803 1326.251372 1151.110607 1335.108794 1140.009305 1335.108794 L 999.943933 1335.108794 L 999.943933 1415.061793 L 1200.003579 1415.061793 C 1222.206184 1415.061793 1240.039128 1397.228849 1240.039128 1375.144343 L 1240.039128 1135.167247 Z M 1159.96803 1135.167247 " transform="matrix(0.0330761,0,0,0.0330761,0,0)"/>
</g>
</svg>

<svg xmlns="http://www.w3.org/2000/svg" width="64pt" height="64pt" viewBox="0 0 64 64"><defs><linearGradient id="a" gradientUnits="userSpaceOnUse" x1="254" y1="233.5" x2="254" y2="254.667" gradientTransform="translate(0 26.878) scale(.12501)"><stop offset="0" stop-opacity=".275"/><stop offset="1" stop-opacity="0"/></linearGradient><radialGradient id="b" gradientUnits="userSpaceOnUse" cx="450.909" cy="189.579" fx="450.909" fy="189.579" r="21.167" gradientTransform="matrix(0 -.15626 -.28128 0 108.23 127.19)"><stop offset="0" stop-opacity=".314"/><stop offset=".222" stop-opacity=".275"/><stop offset="1" stop-opacity="0"/></radialGradient><radialGradient id="c" gradientUnits="userSpaceOnUse" cx="450.909" cy="189.579" fx="450.909" fy="189.579" r="21.167" gradientTransform="matrix(0 .15626 .28128 0 -44.724 -15.055)"><stop offset="0" stop-opacity=".314"/><stop offset=".222" stop-opacity=".275"/><stop offset="1" stop-opacity="0"/></radialGradient><radialGradient id="d" gradientUnits="userSpaceOnUse" cx="450.909" cy="189.579" fx="450.909" fy="189.579" r="21.167" gradientTransform="matrix(0 -.15626 .28128 0 -44.724 127.19)"><stop offset="0" stop-opacity=".314"/><stop offset=".222" stop-opacity=".275"/><stop offset="1" stop-opacity="0"/></radialGradient><radialGradient id="e" gradientUnits="userSpaceOnUse" cx="450.909" cy="189.579" fx="450.909" fy="189.579" r="21.167" gradientTransform="matrix(0 .15626 -.28128 0 108.23 -15.055)"><stop offset="0" stop-opacity=".314"/><stop offset=".222" stop-opacity=".275"/><stop offset="1" stop-opacity="0"/></radialGradient><linearGradient id="f" gradientUnits="userSpaceOnUse" x1="254" y1="-147.5" x2="254" y2="-31.083" gradientTransform="translate(0 26.878) scale(.12501)"><stop offset="0" stop-color="#a4a4a4" stop-opacity="0"/><stop offset="1" stop-color="#fff" stop-opacity=".196"/></linearGradient><linearGradient id="g" gradientUnits="userSpaceOnUse" x1="254" y1="233.5" x2="254" y2="-105.167" gradientTransform="translate(0 26.878) scale(.12501)"><stop offset="0" stop-color="#585858" stop-opacity="0"/><stop offset="1" stop-color="#fafafa" stop-opacity=".196"/></linearGradient><linearGradient id="h" gradientUnits="userSpaceOnUse" x1="960" y1="255.118" x2="960" y2="1695.118"><stop offset="0" stop-color="#a4a4a4" stop-opacity="0"/><stop offset="1" stop-color="#fff" stop-opacity=".196"/></linearGradient></defs><path d="M7.938 56.066h47.628v2.649H7.937zm0 0" fill="url(#a)"/><path d="M55.566 56.066h5.293v-2.644h-5.293zm0 0" fill="url(#b)"/><path d="M7.938 56.066H2.644v2.649h5.292zm0 0" fill="url(#c)"/><path d="M7.938 56.066H2.644v-2.644h5.292zm0 0" fill="url(#d)"/><path d="M55.566 56.066h5.293v2.649h-5.293zm0 0" fill="url(#e)"/><path d="M14.555 8.438H57.55a2.646 2.646 0 0 1 2.648 2.648v9.922a2.645 2.645 0 0 1-2.648 2.644H14.555a2.647 2.647 0 0 1-2.649-2.644v-9.922a2.648 2.648 0 0 1 2.649-2.649zm0 0" fill="#1e88e5"/><path d="M14.555 8.438H57.55a2.646 2.646 0 0 1 2.648 2.648v9.922a2.645 2.645 0 0 1-2.648 2.644H14.555a2.647 2.647 0 0 1-2.649-2.644v-9.922a2.648 2.648 0 0 1 2.649-2.649zm0 0" fill="url(#f)"/><path d="M14.555 8.438a2.64 2.64 0 0 0-2.649 2.648v.328a2.64 2.64 0 0 1 2.649-2.644H57.55a2.64 2.64 0 0 1 2.648 2.644v-.328a2.64 2.64 0 0 0-2.648-2.649zm0 0" fill="#e6e6e6" fill-opacity=".588"/><path d="M14.555 8.25a2.836 2.836 0 0 0-2.836 2.836v9.922a2.832 2.832 0 0 0 2.836 2.832H57.55a2.832 2.832 0 0 0 2.836-2.832v-9.922A2.836 2.836 0 0 0 57.55 8.25zm0 .375H57.55a2.45 2.45 0 0 1 2.46 2.46v9.923a2.45 2.45 0 0 1-2.46 2.457H14.555a2.45 2.45 0 0 1-2.461-2.457v-9.922a2.45 2.45 0 0 1 2.46-2.461zm0 0" fill="#212121"/><path d="M5.293 13.73a2.642 2.642 0 0 0-2.648 2.645v37.047a2.642 2.642 0 0 0 2.648 2.644h52.922a2.639 2.639 0 0 0 2.644-2.644V20.344H25.137a2.639 2.639 0 0 1-2.645-2.645V13.73zm0 0" fill="#42a5f5"/><path d="M5.293 13.73a2.642 2.642 0 0 0-2.648 2.645v37.047a2.642 2.642 0 0 0 2.648 2.644h52.922a2.639 2.639 0 0 0 2.644-2.644V20.344H25.137a2.639 2.639 0 0 1-2.645-2.645V13.73zm0 0" fill="url(#g)"/><path d="M5.293 56.066a2.642 2.642 0 0 1-2.648-2.644v-.332a2.643 2.643 0 0 0 2.648 2.648h52.922a2.64 2.64 0 0 0 2.644-2.648v.332a2.639 2.639 0 0 1-2.644 2.644zm0 0" fill-opacity=".196"/><path d="M5.293 13.73a2.642 2.642 0 0 0-2.648 2.645v.332a2.642 2.642 0 0 1 2.648-2.645h17.2v-.332zm0 0M24.973 20.512a2.64 2.64 0 0 1-2.645-2.649v-.328a2.637 2.637 0 0 0 2.645 2.645h35.886v.332zm0 0" fill="#e6e6e6" fill-opacity=".937"/><path d="M5.293 13.543a2.832 2.832 0 0 0-2.836 2.832v37.047a2.832 2.832 0 0 0 2.836 2.832h52.922a2.83 2.83 0 0 0 2.832-2.832V19.969h-35.91a2.447 2.447 0 0 1-2.457-2.457v-3.969zm0 .375h17.012v3.594a2.83 2.83 0 0 0 2.832 2.832h35.535v33.078a2.449 2.449 0 0 1-2.457 2.457H5.293a2.45 2.45 0 0 1-2.461-2.457V16.375a2.45 2.45 0 0 1 2.461-2.457zm0 0" fill="#212121"/><path d="M23.816 25.637a1.32 1.32 0 0 0-1.324 1.324v7.937h2.645v-5.953a.66.66 0 0 1 .664-.66h4.629v-2.648zm9.258 0v2.648h4.633c.367 0 .66.293.66.66v5.953h2.649v-7.937a1.32 1.32 0 0 0-1.325-1.324zm-10.582 11.91v7.937c0 .73.59 1.32 1.324 1.32h6.614V44.16H25.8a.66.66 0 0 1-.663-.66v-5.953zm15.875 0V43.5c0 .367-.293.66-.66.66h-4.633v2.645h6.617a1.32 1.32 0 0 0 1.325-1.32v-7.938zm0 0" fill="#1e88e5"/><path d="M720.05 775.084a39.919 39.919 0 0 0-40.036 40.035v239.977h79.953V875.113c0-11.101 8.975-19.958 20.077-19.958H919.99v-80.071zm279.894 0v80.07h140.065c11.102 0 19.959 8.858 19.959 19.96v179.982h80.071V815.12a39.919 39.919 0 0 0-40.035-40.035zm-319.93 360.083v239.977c0 22.085 17.833 39.918 40.035 39.918h199.942v-79.953H780.044c-11.102 0-20.077-8.858-20.077-19.959v-179.983zm479.954 0v179.983c0 11.101-8.857 19.959-19.959 19.959H999.944v79.953h200.06c22.202 0 40.035-17.833 40.035-39.918v-239.977zm0 0" transform="scale(.03308)" fill="url(#h)" stroke-width="11.339" stroke-linecap="round" stroke-linejoin="round" stroke="#212121"/></svg>
